X: 22
T:Padraig O'Keeffes (3)
R:Slide
M:6/8
S:Noel Hill, Clare (concertina)
D:Tape of concert in Dublin '91
Z:Bernie Stocks
K:G
dBA G2A | BGE E2B | dBG AGE | GED D2B | dBG G2B | dBG ege |
dBG AGE |1 GED D2B :|2 GED D2f || gfg e2f | gfg e2f | g2e a2g |
fef def | g2e a2f | gfe d2B | dBG AGE |1 GED D2f :|2 GED D3 ||
<end>
<start>
